X: 13271
T: Five Mile Chase, The
R: reel
M: 4/4
K: Gmajor
|:G3B d2BG|FADA FADA|G2 (3BAG dG (3Bcd|egfa gedB|
G3B d2 (3Bcd|FADA FADA|G2 (3BAG dG (3Bcd|egfa g2 gf:|
|:gd (3Bcd ed (3Bcd|gabg agef|gd (3Bcd ed (3Bcd|egfa g3f|
gabg efge|dedc BG (3Bcd|e3d ed (3Bcd|egfa gedB:|

